Costumes/Z-pixel.svg

<?xml version="1.0" encoding="UTF-8" standalone="no"?>
<svg
   version="1.1"
   width="25.435093"
   height="35.609131"
   id="svg8"
   sodipodi:docname="Z-pixel.svg"
   xmlns:inkscape="http://www.inkscape.org/namespaces/inkscape"
   xmlns:sodipodi="http://sodipodi.sourceforge.net/DTD/sodipodi-0.dtd"
   xmlns="http://www.w3.org/2000/svg"
   xmlns:svg="http://www.w3.org/2000/svg">
  <defs
     id="defs12" />
  <sodipodi:namedview
     id="namedview10"
     pagecolor="#ffffff"
     bordercolor="#000000"
     borderopacity="0.25"
     inkscape:showpageshadow="2"
     inkscape:pageopacity="0.0"
     inkscape:pagecheckerboard="0"
     inkscape:deskcolor="#d1d1d1" />
  <!-- Exported by Scratch - http://scratch.mit.edu/ -->
  <g
     id="ID0.2567954007536173"
     transform="translate(0,-0.4)">
    <path
       id="ID0.16419929265975952"
       fill="#39b54a"
       d="m 21,84 h 21 v 21 H 21 Z"
       transform="matrix(0.24223898,0,0,0.24223898,0,0.4)" />
    <path
       id="ID0.7264953912235796"
       fill="#39b54a"
       d="M 42,63 H 63 V 84 H 42 Z"
       transform="matrix(0.24223898,0,0,0.24223898,0,0.4)" />
    <path
       id="ID0.5767715661786497"
       fill="#39b54a"
       d="M 63,42 H 84 V 63 H 63 Z"
       transform="matrix(0.24223898,0,0,0.24223898,0,0.4)" />
    <path
       id="ID0.11456661252304912"
       fill="#39b54a"
       d="M 105,147 V 126 H 21 V 105 H 0 v 42 h 105"
       transform="matrix(0.24223898,0,0,0.24223898,0,0.4)" />
    <path
       id="ID0.018796910997480154"
       fill="#39b54a"
       d="M 105,42 V 0 H 0 v 21 h 84 v 21 h 21"
       transform="matrix(0.24223898,0,0,0.24223898,0,0.4)" />
  </g>
</svg>

<svg version="1.1" width="26" height="36" xmlns="http://www.w3.org/2000/svg" xmlns:xlink="http://www.w3.org/1999/xlink">
  <!-- Exported by Scratch - http://scratch.mit.edu/ -->
  <g id="ID0.2567954007536173">
    <path id="ID0.16419929265975952" fill="#39B54A" d="M 21 84 L 42 84 L 42 105 L 21 105 L 21 84 Z " transform="matrix(0.24223898351192474, 0, 0, 0.24223898351192474, 0, 0.4)"/>
    <path id="ID0.7264953912235796" fill="#39B54A" d="M 42 63 L 63 63 L 63 84 L 42 84 L 42 63 Z " transform="matrix(0.24223898351192474, 0, 0, 0.24223898351192474, 0, 0.4)"/>
    <path id="ID0.5767715661786497" fill="#39B54A" d="M 63 42 L 84 42 L 84 63 L 63 63 L 63 42 Z " transform="matrix(0.24223898351192474, 0, 0, 0.24223898351192474, 0, 0.4)"/>
    <path id="ID0.11456661252304912" fill="#39B54A" d="M 105 147 L 105 126 L 21 126 L 21 105 L 0 105 L 0 147 L 105 147 " transform="matrix(0.24223898351192474, 0, 0, 0.24223898351192474, 0, 0.4)"/>
    <path id="ID0.018796910997480154" fill="#39B54A" d="M 105 42 L 105 0 L 0 0 L 0 21 L 84 21 L 84 42 L 105 42 " transform="matrix(0.24223898351192474, 0, 0, 0.24223898351192474, 0, 0.4)"/>
  </g>
</svg>
